Papirus-nordic/48x48/places/folder-red-unlocked.svg

<svg xmlns="http://www.w3.org/2000/svg" width="48" height="48" version="1"><rect width="40" height="26" x="4" y="17" rx="2" ry="2" opacity=".2"/><path d="M4 34c0 1.108.892 2 2 2h36c1.108 0 2-.892 2-2V12c0-1.108-.892-2-2-2H22V8c0-1.108-.892-2-2-2H6c-1.108 0-2 .892-2 2" fill="#ae4f58"/><rect width="40" height="26" x="4" y="15" rx="2" ry="2" opacity=".2"/><rect width="36" height="16" x="6" y="13" rx="2" ry="2" fill="#e4e4e4"/><rect width="40" height="26" x="4" y="16" rx="2" ry="2" fill="#bf616a"/><path d="M6 6c-1.108 0-2 .892-2 2v1c0-1.108.892-2 2-2h14c1.108 0 2 .892 2 2V8c0-1.108-.892-2-2-2zm16 4v1h20c1.108 0 2 .892 2 2v-1c0-1.108-.892-2-2-2z" opacity=".1" fill="#fff"/><path d="M24 20c-2.216 0-4 1.821-4 4.062V25h2v-1c0-1.109.892-2 2-2s2 .891 2 2v4h-7c-.554 0-1 .446-1 1v6c0 .554.446 1 1 1h10c.554 0 1-.446 1-1v-6c0-.554-.446-1-1-1h-1v-3.938C28 21.822 26.216 20 24 20z" fill="#974a4d"/></svg>

<svg xmlns="http://www.w3.org/2000/svg" width="48" height="48" version="1">
 <rect style="opacity:0.2" width="40" height="26" x="4" y="17" rx="2" ry="2"/>
 <path style="fill:#ae4f58" d="M 4,34 C 4,35.108 4.892,36 6,36 H 42 C 43.108,36 44,35.108 44,34 V 12 C 44,10.892 43.108,10 42,10 H 22 V 8 C 22,6.892 21.108,6 20,6 H 6 C 4.892,6 4,6.892 4,8"/>
 <rect style="opacity:0.2" width="40" height="26" x="4" y="15" rx="2" ry="2"/>
 <rect style="fill:#e4e4e4" width="36" height="16" x="6" y="13" rx="2" ry="2"/>
 <rect style="fill:#bf616a" width="40" height="26" x="4" y="16" rx="2" ry="2"/>
 <path style="opacity:0.1;fill:#ffffff" d="M 6,6 C 4.892,6 4,6.892 4,8 V 9 C 4,7.892 4.892,7 6,7 H 20 C 21.108,7 22,7.892 22,9 V 8 C 22,6.892 21.108,6 20,6 Z M 22,10 V 11 H 42 C 43.108,11 44,11.892 44,13 V 12 C 44,10.892 43.108,10 42,10 Z"/>
 <path style="fill:#974a4d" d="M 24 20 C 21.784 20 20 21.821 20 24.062 L 20 25 L 22 25 L 22 24 C 22 22.891 22.892 22 24 22 C 25.108 22 26 22.891 26 24 L 26 28 L 24 28 L 19 28 C 18.446 28 18 28.446 18 29 L 18 35 C 18 35.554 18.446 36 19 36 L 29 36 C 29.554 36 30 35.554 30 35 L 30 29 C 30 28.446 29.554 28 29 28 L 28 28 L 28 24.062 C 28 21.822 26.216 20 24 20 z"/>
</svg>
